X: 101
T: the Wandering Melodist
%R: march
B: Thompson's Twenty four Country Dances (for the Year 1804) p.10 #1
S: http://folkopedia.efdss.org/images/2/28/Thompson24_1804.PDF  2014-8-2
Z: 2014 John Chambers <jc:trillian.mit.edu>
M: 2/4
L: 1/8
K: A
|:\
EecA | GBEE | EecA | BEE2 |\
EecA | GBEa | ge g/f/e/^d/ | e2 ef/g/ :|
|:\
aecA | fAeA | aecA | GBB2 |\
aecA | fAeA | cAEG | AAA2 :|
% - - - - - - - - - - - - - - - - - - - - - - - - -
%%begintext align
%% Hands six round and back again Allemande
%% and promenade round three Cu: Cross over two
%% Cu: lead up again and cast off half right and
%% left and back again.
%%endtext
% - - - - - - - - - - - - - - - - - - - - - - - - -
